outputs/icons/image/portrait_round.svg

<svg width="1200" height="1200" viewBox="0 0 1200 1200" fill="none" xmlns="http://www.w3.org/2000/svg"><g clip-path="url(#clip0_238_2758)"><path d="M600 612.5C662 612.5 712.5 562 712.5 500C712.5 438 662 387.5 600 387.5C538 387.5 487.5 438 487.5 500C487.5 562 538 612.5 600 612.5ZM825 812.5C825 737.5 675 700 600 700C525 700 375 737.5 375 812.5V850H825V812.5ZM349.793 150C266.95 150 200 217.157 200 300L200 900C200 982.845 267.157 1050 350 1050H850C932.845 1050 1000 982.845 1000 900V300C1000 217.157 932.855 150 850.01 150C702.27 150 490.948 150 349.793 150ZM850 950H350C322.5 950 300 927.5 300 900V300C300 272.5 322.5 250 350 250H850C877.5 250 900 272.5 900 300V900C900 927.5 877.5 950 850 950Z" fill="black"/></g><defs><clipPath id="clip0_238_2758"><path width="24" fill="white" d="M0 0H1200V1200H0V0z"/></clipPath></defs></svg>

<svg xmlns="http://www.w3.org/2000/svg" width="1200" height="1200" fill="none"><g clip-path="url(#a)"><path fill="#000" d="M600 612.5c62 0 112.5-50.5 112.5-112.5S662 387.5 600 387.5 487.5 438 487.5 500 538 612.5 600 612.5m225 200c0-75-150-112.5-225-112.5s-225 37.5-225 112.5V850h450zM349.793 150C266.95 150 200 217.157 200 300v600c0 82.845 67.157 150 150 150h500c82.845 0 150-67.155 150-150V300c0-82.843-67.145-150-149.99-150zM850 950H350c-27.5 0-50-22.5-50-50V300c0-27.5 22.5-50 50-50h500c27.5 0 50 22.5 50 50v600c0 27.5-22.5 50-50 50"/></g><defs><clipPath id="a"><path fill="#fff" d="M0 0h1200v1200H0z"/></clipPath></defs></svg>
